X:1045
T: Boy in the Tree
T: Buachaill sa Chrann
S: B.Breathnach:"Ceol Rince na hEireann" IV/94
Z: B.Black
L: 1/8
M: 4/4
R: reel
K: Ador
Bd|(3ege dB GABd|eB B2 AGED|EBAG ABcd|eage d2 Bd|
eBdB AGED|GDBD GABd|egdB GABd|egdB A2 :|
Bd|(3eee ae beae|dedB GABd|(3eee ae beae|dBGB ABcd|
eAaA gAfA|BcdB GABd|(3ege af gedB|GABG A2 :|
